img/Ico/Map.svg

<svg width="30" height="30" viewBox="0 0 30 30" fill="none" xmlns="http://www.w3.org/2000/svg">
<path fill-rule="evenodd" clip-rule="evenodd" d="M1.00136 27.0448C0.792275 27.0478 0.588179 26.9809 0.42136 26.8548C0.292118 26.7628 0.186625 26.6414 0.113595 26.5005C0.0405646 26.3597 0.00209358 26.2035 0.00135996 26.0448V7.04483C-0.0100221 6.82676 0.0502863 6.61096 0.173074 6.43039C0.295862 6.24982 0.474379 6.11441 0.68136 6.04483L9.68136 3.04483C9.8803 2.98506 10.0924 2.98506 10.2914 3.04483L20.0013 6.0448L28.7014 3.14483C28.8517 3.09524 29.0118 3.08207 29.1682 3.10641C29.3247 3.13075 29.4731 3.1919 29.6014 3.28483C29.7203 3.37384 29.8179 3.48824 29.8871 3.6197C29.9563 3.75116 29.9953 3.89639 30.0014 4.04483V23.0448C30.0019 23.2545 29.9365 23.459 29.8145 23.6295C29.6925 23.7999 29.52 23.9277 29.3214 23.9948L20.3214 26.9948C20.1224 27.0546 19.9103 27.0546 19.7114 26.9948L10.0014 24.0948L1.32136 27.0448C1.21518 27.0592 1.10754 27.0592 1.00136 27.0448ZM11.0013 5.39863L19.0013 7.82912V24.7359L10.9785 22.2571C10.9936 22.1879 11.0013 22.1168 11.0013 22.0448V5.39863ZM9.00134 5.42858L2.00136 7.76483V24.6548L9.03704 22.3096C9.01355 22.2241 9.00134 22.1351 9.00134 22.0448V5.42858ZM28.0014 22.3748L21.0013 24.7111V7.81374L28.0014 5.43483V22.3748Z" fill="black"/>
</svg>

<svg width="30" height="30" fill="none" xmlns="http://www.w3.org/2000/svg"><path fill-rule="evenodd" clip-rule="evenodd" d="M1.001 27.045a.94.94 0 0 1-.58-.19 1 1 0 0 1-.42-.81v-19a1 1 0 0 1 .68-1l9-3c.2-.06.411-.06.61 0l9.71 3 8.7-2.9a1 1 0 0 1 .9.14 1 1 0 0 1 .4.76v19a1 1 0 0 1-.68.95l-9 3a1.06 1.06 0 0 1-.61 0l-9.71-2.9-8.68 2.95a1.19 1.19 0 0 1-.32 0zm10-21.646 8 2.43v16.907l-8.023-2.479a.995.995 0 0 0 .023-.212V5.399zm-2 .03-7 2.336v16.89l7.036-2.345a1 1 0 0 1-.036-.265V5.429zm19 16.946-7 2.336V7.814l7-2.38v16.94z" fill="#000"/></svg>
